X: 456
T: Bulunmaz Derdime Çare
C: Âmâ Hasadur
O: Turkey
F: http://compmusic.upf.edu/node/140
N: beyati--sarki--evfer--bulunmaz_derdime--ama_hasadur
N: makam= beyati
N: form= sarki
N: usul= evfer = 9/8
M: 9/8
L: 1/16
K: C _2/4B   
Q: 1/4=120
%%MIDI tuningsystem comma53
G2A4e2 dced c2d4 | ed dcgf eddc cBc3/2B/ A2z2  | 
w:  Bu lun *  maz  *  *  *  der  |  di *  *  *  me  *  *  *  çâ *  *  *  re    | 
e2f2 a2gf feed _7/8edcB AG | GA Bcde eddc cBB2 A2e2  | 
w:  Â *  *  şık  *  ol *  *  *  dum   |  si *  *  *  *  *  *  *  tem *  *  *  kâ  | 
edcB A4 ag^fa g4 z2 | g4g3a_b3/2a/ ga^f2 g4  | \
w:  re   *  *  *  *  SAZ  |  Cev rin  *  i *  *  *  le   | 
fgfe fgfe ag2a g2fe d2 | 
w:  ci *  *  *  ğer  *  *  *  pâ *  *  re    | 
e2 f2a2 gffe ed_7/8ed cBAG  | GABc deed dccB B2A2 e2 | 
w:  Â *  *  şık  *  ol *  *  *  dum   |  si *  *  *  *  *  *  *  tem *  *  *  kâ  | 
ed cBA8z4z2  | |


